dist/images/dest/icons/about-logo.svg

<svg width="328" height="121" viewBox="0 0 328 121" fill="none" xmlns="http://www.w3.org/2000/svg">
<path d="M52.4617 66.333H44.752V102.333H52.4617V66.333Z" fill="white"/>
<path d="M102.742 26.166V18.666H18.7725V26.166H44.751V41.166H52.2932V26.166H62.0142V102.333H65.5338H69.7239H102.742V94.666H69.7239V26.166H102.742Z" fill="white"/>
<path d="M48.6062 57.3333C50.6426 57.3333 52.2935 55.6917 52.2935 53.6667C52.2935 51.6416 50.6426 50 48.6062 50C46.5698 50 44.9189 51.6416 44.9189 53.6667C44.9189 55.6917 46.5698 57.3333 48.6062 57.3333Z" fill="white"/>
<path d="M121.513 120.833H0V0H121.513V120.833ZM7.54216 113.333H113.97V7.5H7.54216V113.333Z" fill="white"/>
<path d="M151.178 81.8333V58.5H143.804V54H163.413V58.5H155.871V81.8333H151.178Z" fill="white"/>
<path d="M179.001 82.1667C174.978 82.1667 171.626 80.8333 168.777 78C165.928 75.3333 164.587 71.8333 164.587 67.8333C164.587 63.8333 165.928 60.5 168.777 57.6667C171.626 55 174.978 53.5 179.001 53.5C183.023 53.5 186.375 54.8333 189.057 57.6667C191.906 60.5 193.247 63.8333 193.247 67.8333C193.247 71.8333 191.906 75.1667 189.057 78C186.375 80.8333 182.856 82.1667 179.001 82.1667ZM179.001 77.8333C181.682 77.8333 184.029 76.8333 185.873 75C187.716 73.1667 188.554 70.8333 188.554 68C188.554 65.1667 187.716 62.8333 185.873 61C184.029 59.1667 181.682 58.1667 179.001 58.1667C176.319 58.1667 173.973 59.1667 172.129 61C170.285 62.8333 169.447 65.1667 169.447 68C169.447 70.8333 170.285 73.1667 172.129 75C173.973 76.8333 176.152 77.8333 179.001 77.8333Z" fill="white"/>
<path d="M198.442 81.8333V54H206.823C209.672 54 212.018 54.8333 213.862 56.5C215.706 58.1667 216.544 60.3333 216.544 62.8333C216.544 65.5 215.706 67.5 213.862 69.1667C212.018 70.8333 209.672 71.6667 206.823 71.6667H202.968V81.8333H198.442ZM202.968 67.5H206.655C208.331 67.5 209.504 67.1667 210.51 66.3333C211.348 65.5 211.851 64.3333 211.851 63C211.851 61.6667 211.348 60.5 210.51 59.6667C209.672 58.8333 208.331 58.3333 206.655 58.3333H202.968V67.5Z" fill="white"/>
<path d="M221.069 81.8333V54H225.595V77.3333H237.327V81.8333H221.069Z" fill="white"/>
<path d="M241.685 81.8333V54H258.277V58.5H246.21V65.5H255.931V70H246.21V77.5H258.277V82H241.685V81.8333Z" fill="white"/>
<path d="M274.199 82.1667L261.126 54H266.154L274.031 71.6667L281.909 54H286.937L274.199 82.1667Z" fill="white"/>
<path d="M289.451 81.8333V54H306.044V58.5H293.976V65.5H303.697V70H293.976V77.5H306.044V82H289.451V81.8333Z" fill="white"/>
<path d="M311.575 81.8333V54H316.101V77.3333H327.833V81.8333H311.575Z" fill="white"/>
<path d="M143.804 120.834V98.334H150.34C152.519 98.334 154.363 98.834 155.536 100.001C156.877 101.167 157.38 102.667 157.38 104.501C157.38 106.001 156.877 107.334 156.039 108.501C155.201 109.667 153.692 110.334 151.849 110.667L159.894 121.001H157.044L149.167 110.667H146.15V120.834H143.804ZM146.15 108.667H150.173C151.681 108.667 153.022 108.334 153.692 107.667C154.53 107.001 154.866 106.001 154.866 104.667C154.866 103.334 154.53 102.334 153.692 101.667C152.854 101.001 151.681 100.667 150.173 100.667H146.15V108.667Z" fill="white"/>
<path d="M163.246 120.834V98.334H176.152V100.501H165.593V108.001H174.14V110.334H165.593V118.501H176.152V120.667H163.246V120.834Z" fill="white"/>
<path d="M178.497 120.834L189.391 98.167L200.286 120.834H197.771L194.755 114.5H184.028L181.011 120.834H178.497ZM185.034 112.334H193.749L189.391 103.167L185.034 112.334Z" fill="white"/>
<path d="M202.968 120.834V98.334H205.314V118.501H215.706V120.834H202.968Z" fill="white"/>
<path d="M229.783 120.834V98.334H242.689V100.501H232.13V108.001H240.677V110.334H232.13V118.501H242.689V120.667H229.783V120.834Z" fill="white"/>
<path d="M253.081 121C251.573 121 250.232 120.667 248.891 120C247.55 119.334 246.544 118.5 245.874 117.5L247.718 116C248.388 116.834 249.058 117.5 250.064 118C251.07 118.5 252.075 118.834 253.081 118.834C254.589 118.834 255.763 118.5 256.601 117.834C257.439 117.167 257.941 116.334 257.941 115.167C257.941 114.167 257.606 113.334 256.936 112.5C256.265 111.834 255.26 111.167 253.919 110.5L251.74 109.5C250.064 108.834 248.891 107.834 248.053 106.834C247.215 105.834 246.88 104.667 246.88 103.167C246.88 101.5 247.55 100.167 248.723 99.167C249.897 98.167 251.573 97.667 253.249 97.667C255.763 97.667 257.774 98.667 259.282 100.5L257.606 102.167C256.433 100.667 254.925 100 253.081 100C251.908 100 251.07 100.334 250.232 100.834C249.394 101.334 249.059 102.167 249.059 103.167C249.059 104 249.394 104.834 249.897 105.5C250.399 106.167 251.405 106.834 252.578 107.334L254.757 108.334C256.433 109.167 257.774 110 258.612 111C259.618 112 259.953 113.167 259.953 114.667C259.953 116.5 259.282 118 258.109 119C256.936 120.5 255.26 121 253.081 121Z" fill="white"/>
<path d="M268.164 120.834V100.667H261.628V98.334H277.215V100.667H270.679V120.834H268.164Z" fill="white"/>
<path d="M275.54 120.834L286.434 98.167L297.328 120.834H294.814L291.798 114.5H281.071L278.054 120.834H275.54ZM282.077 112.334H290.792L286.434 103.167L282.077 112.334Z" fill="white"/>
<path d="M302.189 120.834V100.667H295.652V98.334H311.239V100.667H304.703V120.834H302.189Z" fill="white"/>
<path d="M315.095 120.834V98.334H328V100.501H317.441V108.001H325.989V110.334H317.441V118.501H328V120.667H315.095V120.834Z" fill="white"/>
</svg>

<svg xmlns="http://www.w3.org/2000/svg" width="328" height="121" fill="none"><path fill="#fff" d="M52.462 66.333h-7.71v36h7.71v-36Z"/><path fill="#fff" d="M102.742 26.166v-7.5h-83.97v7.5h25.979v15h7.542v-15h9.721v76.167h40.728v-7.667H69.724v-68.5h33.018Z"/><path fill="#fff" d="M48.606 57.333c2.037 0 3.688-1.641 3.688-3.666S50.642 50 48.605 50c-2.036 0-3.687 1.642-3.687 3.667s1.65 3.666 3.687 3.666Z"/><path fill="#fff" d="M121.513 120.833H0V0h121.513v120.833Zm-113.97-7.5H113.97V7.5H7.542v105.833Zm143.635-31.5V58.5h-7.374V54h19.609v4.5h-7.542v23.333h-4.693Zm27.823.334c-4.023 0-7.375-1.334-10.224-4.167-2.849-2.667-4.19-6.167-4.19-10.167s1.341-7.333 4.19-10.166c2.849-2.667 6.201-4.167 10.224-4.167 4.022 0 7.374 1.333 10.056 4.167 2.849 2.833 4.19 6.166 4.19 10.166s-1.341 7.334-4.19 10.167c-2.682 2.833-6.201 4.167-10.056 4.167Zm0-4.334c2.681 0 5.028-1 6.872-2.833 1.843-1.833 2.681-4.167 2.681-7s-.838-5.167-2.681-7c-1.844-1.833-4.191-2.833-6.872-2.833-2.682 0-5.028 1-6.872 2.833-1.844 1.833-2.682 4.167-2.682 7s.838 5.167 2.682 7c1.844 1.833 4.023 2.833 6.872 2.833Zm19.441 4V54h8.381c2.849 0 5.195.833 7.039 2.5 1.844 1.667 2.682 3.833 2.682 6.333 0 2.667-.838 4.667-2.682 6.334-1.844 1.666-4.19 2.5-7.039 2.5h-3.855v10.166h-4.526Zm4.526-14.333h3.687c1.676 0 2.849-.333 3.855-1.167.838-.833 1.341-2 1.341-3.333 0-1.333-.503-2.5-1.341-3.333-.838-.834-2.179-1.334-3.855-1.334h-3.687V67.5Zm18.101 14.333V54h4.526v23.333h11.732v4.5h-16.258Zm20.616 0V54h16.592v4.5H246.21v7h9.721V70h-9.721v7.5h12.067V82h-16.592v-.167Zm32.514.334L261.126 54h5.028l7.877 17.667L281.909 54h5.028l-12.738 28.167Zm15.252-.334V54h16.593v4.5h-12.068v7h9.721V70h-9.721v7.5h12.068V82h-16.593v-.167Zm22.124 0V54h4.526v23.333h11.732v4.5h-16.258Zm-167.771 39.001v-22.5h6.536c2.179 0 4.023.5 5.196 1.667 1.341 1.166 1.844 2.666 1.844 4.5 0 1.5-.503 2.833-1.341 4-.838 1.166-2.347 1.833-4.19 2.166l8.045 10.334h-2.85l-7.877-10.334h-3.017v10.167h-2.346Zm2.346-12.167h4.023c1.508 0 2.849-.333 3.519-1 .838-.666 1.174-1.666 1.174-3 0-1.333-.336-2.333-1.174-3-.838-.666-2.011-1-3.519-1h-4.023v8Zm17.096 12.167v-22.5h12.906v2.167h-10.559v7.5h8.547v2.333h-8.547v8.167h10.559v2.166h-12.906v.167Zm15.251 0 10.894-22.667 10.895 22.667h-2.515l-3.016-6.334h-10.727l-3.017 6.334h-2.514Zm6.537-8.5h8.715l-4.358-9.167-4.357 9.167Zm17.934 8.5v-22.5h2.346v20.167h10.392v2.333h-12.738Zm26.815 0v-22.5h12.906v2.167H232.13v7.5h8.547v2.333h-8.547v8.167h10.559v2.166h-12.906v.167Zm23.298.166c-1.508 0-2.849-.333-4.19-1-1.341-.666-2.347-1.5-3.017-2.5l1.844-1.5c.67.834 1.34 1.5 2.346 2s2.011.834 3.017.834c1.508 0 2.682-.334 3.52-1 .838-.667 1.34-1.5 1.34-2.667 0-1-.335-1.833-1.005-2.667-.671-.666-1.676-1.333-3.017-2l-2.179-1a9.147 9.147 0 0 1-3.687-2.666c-.838-1-1.173-2.167-1.173-3.667 0-1.667.67-3 1.843-4 1.174-1 2.85-1.5 4.526-1.5 2.514 0 4.525 1 6.033 2.833l-1.676 1.667c-1.173-1.5-2.681-2.167-4.525-2.167-1.173 0-2.011.334-2.849.834-.838.5-1.173 1.333-1.173 2.333 0 .833.335 1.667.838 2.333.502.667 1.508 1.334 2.681 1.834l2.179 1c1.676.833 3.017 1.666 3.855 2.666 1.006 1 1.341 2.167 1.341 3.667 0 1.833-.671 3.333-1.844 4.333-1.173 1.5-2.849 2-5.028 2Zm15.083-.166v-20.167h-6.536v-2.333h15.587v2.333h-6.536v20.167h-2.515Zm7.376 0 10.894-22.667 10.894 22.667h-2.514l-3.016-6.334h-10.727l-3.017 6.334h-2.514Zm6.537-8.5h8.715l-4.358-9.167-4.357 9.167Zm20.112 8.5v-20.167h-6.537v-2.333h15.587v2.333h-6.536v20.167h-2.514Zm12.906 0v-22.5H328v2.167h-10.559v7.5h8.548v2.333h-8.548v8.167H328v2.166h-12.905v.167Z"/></svg>
